X:1
T:Floreas, Wakefieldia
T:"Floreas, Wakefieldia"
T:Tune: Matthew H. Peacock, M.A., B. Mus. (c.1900) Arr: Andrew M. Mason, M.B., B.S. (2017) 
T:Lyrics: H G Abel, M.A. 
T:(A WAKEFIELD GRAMMAR SCHOOL SONG)
T:Tune in the public domain.
T:Tune in the public domain.
T:Tune in the public domain.
C:Matthew H Peacock, M.A., B. Mus.
Z:H G Abel
Z:Tune in the public domain.
%%score 1 { ( 2 3 ) | ( 4 5 ) }
L:1/8
Q:1/4=120
M:4/4
K:D
V:1 treble nm="Voice" snm="Vo."
V:2 treble nm="Piano" snm="Pno."
V:3 treble 
V:4 bass 
V:5 bass 
V:1
 z8 | z8 | z8 | z8 ||!mf![Q:1/4=120] D2"^Andante moderato" F2"^SOLO OR VOICES IN UNISON" A3 A | %5
w: ||||1.~A te Ma- ter,|
w: ||||2.~Quid va- let mal-|
 B3 c B2 A2 | D2 F2 A3 A | B3 c B2 A2 | A2 A2 d3 F | G2 B2 (AG) F2 | F2 F2 B3 D | E2 G2 (FE) D2 | %12
w: quid do- ce- mur?|Vi- ta tu- a|quid mo- ne- mur?|Nil dif- fer- re|neg- li- gen- * ter,|Quod con- stan- ter,|id de- cen- * ter,|
w: or- um ri- sus,|Si ho- nes- tus|mo- do ni- sus?|Quid- quid rec- tum,|hoc a- gen- * dum,|Quid- quid tur- pe,|fu- gi- en- * dum:|
"^cresc." E3!<(! F!<)! G2 B2 | A3 B c2 A2 | d3 c B2 A2 | %15
w: Nil ti- me- re|la- bor- an- tes,|Ni- si bo- nos|
w: Rub- e- as dig-|no co- lo- re,|Prim- ae par- tes|
"^rall."!>(! G2!>)![Q:1/4=105] F2[Q:1/4=100] E4 |[Q:1/4=95] D4 z2 z2[Q:1/8=125] || %17
w: in- cre- pan-|tes.|
w: sint ho- no-|ri.|
[M:6/8][Q:1/4=90]"^a tempo, con vigore"!f! (AF) G A2"^CHORUS" d | c2 B A3 | (AF) G A2 d | c2 B A3 | %21
w: Flor- * e- as, Wake-|field- i- a|Au- * re- a cum|re- gu- la;|
w: ||||
 !>!d2 d (dc) B | A2 G F3 | !>!B2 B (BA) G | F2 E D3 | E2 F G A B | A2 B c3 | (dc) B A2 A | %28
w: "Me- um quis- * que|di- li- gat,|Su- um ma- * gis|ne- gli- gat,|Jun- i- o- rum hu-|mi- li- tas|Sen- * i- o- rum|
w: |||||||
"^rall."[Q:1/4=80] !>!B3[Q:1/4=77]"^.5" !>!c3 |[Q:1/4=75] !>!d6 :| %30
w: dig- ni-|tas."|
w: ||
V:2
"^Andante moderato" D2 F2 A3 A | G2 B2 d4 |!<(! (3[Bd]2 [GB]2 [Ac]2 !>!d2 !>!e2!<)! | %3
 !>![df]4 z4 || D2 F2 A3 A | B3 c B2 A2 | D2 F2 A3 A | B3 c B2 A2 | A2 A2 d3 F | G2 B2 AG F2 | %10
 [DF]2 [EF]2 B3 D | E2 G2 FE D2 |"_cres."!<(! [B,E]3 [^DF] [EG]2 [EB]2 | %13
 [EA]3 [DB] [Cc]2 [CA]2!<)! | d3 c B2 A2 |!>(! G2!>)! F2 E4 | D4 z [CA] (3[CA][CA][CA] || %17
[M:6/8] [FA][DF] [EG] [FA]2 [Dd] | [DAc]2 [DGB] [DFA]3 | [FA][DF] [EG] A2 [Fd] | c2 [DB] A3 | %21
 d2 d dc B | [FA]2 [EG] F3 | B2 B BA G | [=DF]2 [CE] D3 | E2 F GA [DB] | A2 B c3 | %27
 dc [DB] [DA]2 [DA] | B3 c3 | [DFAd]6 :| %30
V:3
 D4 F4 | G4 A4 | x4 [GB]2 [GBd]2 | [FA]4 x4 || D4 E4 | G4 G2 F2 | D4 E4 | D4 D2 C2 | C2 C2 D4 | %9
 D4 C2 D2 | x4 D4 | D4 C2 D2 | x8 | x8 | D4 C2 D2 | D4 E2 C2 | D4 x4 ||[M:6/8] x6 | x6 | x3 F2 x | %20
 E2 x C3 | D2 F D3 | x3 D3 | D2 ^D E2 E | x5 C | D3- D2 x | C2 D E3 | D2 x4 | D3 [EA]3 | x6 :| %30
V:4
!f! F,2 A,2 D4 | D4 D4 |!ff! D4 D4 | D4 z4 ||!mf! F,2 B,2 C4 | D4 [D,D]4 | F,2 A,2 A,4 | %7
 ^G,4 G,2 A,2 | A,2 =G,2 A,4 | B,2 G,2 A,4 | A,2 ^A,2 B,4 | B,4 ^A,2 B,2 | B,3 A, G,4 | G,4 G,4 | %14
 F,4 G,2 A,2 |"^rall." B,4 A,2 =G,2 | [F,A,]4 z2!<(! z2!<)! || %17
[M:6/8]"^a tempo, con vigore"!f! A,3- A,2 A, | G,2 B, D3 | A,3- A,2 A, | A,2 ^G, A,3 | A,2 A, B,3 | %22
 C3 D2 C | B,2 A, G,2 B, | ^A,3 B,3- | B,3- B,2 B, | C2 B, A,2 G, | A,2 G, A,2 A, | %28
"^rall." !>!^G,3 !>![=G,A,]3 | !>![D,F,A,]6 :| %30
V:5
 D,6 C,2 | B,,2 G,,2 F,,4 | G,,4 G,4 | [D,F,A,]4 x4 || D,2 B,,2 A,,4 | G,,2 x6 | D,4 C,4 | %7
 E,4 E,2 A,,2 | A,4 F,4 | E,4 A,,2 D,2 | D,2 C,2 B,,4 | G,,2 E,,2 F,,2 B,,2 | G,3 F, E,2 D,2 | %13
 C,3 B,, A,,4 | B,,4 E,2 F,2 | G,2 ^G,2 A,2 A,,2 | D,4 z4 ||[M:6/8] D,3- D, x D, | D,3- D,3 | %19
 (D,3 C,2) B,, | E,3 x2 =G, | F,2 F, G,3 | A,3 B,2 A, | G,2 F, E,2 E, | F,3 B,,2 =A,, | %25
 G,,2 F,, E,,2 G,, | A,,3 A,2 x | F,2 G, F,2 =F, | E,3 [A,,E,]3 | x6 :| %30

